X: 12242
T: Fair-haired Lass, The
R: reel
M: 4/4
K: Amixolydian
|:e~a3 efgf|e~a3 ABcd|e~a3 efg/f/e|afge d2cd:|
e~A3 efgf|e~A3 BAGB|1 e~A3 efg/f/e|afge d2cd:|2 ABcd efg/f/e|afge d4||

